raw/symbols/usdc.svg

<svg width="42" height="42" viewBox="0 0 42 42" fill="none" xmlns="http://www.w3.org/2000/svg">
<circle cx="21.0002" cy="20.9999" r="18.6667" fill="#F3F3F3"/>
<path d="M21 0C9.41525 0 0 9.39418 0 21C0 32.6058 9.39418 42 21 42C32.6058 42 42 32.6058 42 21C42 9.39418 32.6058 0 21 0ZM16.3661 35.0702C16.3661 35.4915 15.9448 35.7864 15.5236 35.6389C9.41525 33.3641 5.37111 27.5928 5.37111 21C5.37111 14.4072 9.41525 8.63591 15.5236 6.36108C15.9238 6.21364 16.3661 6.50853 16.3661 6.92979V7.87763C16.3661 8.13039 16.1976 8.36209 15.9659 8.44634C10.8475 10.4895 7.47743 15.4183 7.47743 21C7.47743 26.5817 10.8475 31.5105 15.9659 33.5537C16.1976 33.6379 16.3661 33.8696 16.3661 34.1224V35.0702ZM21.8425 28.8566V30.8365C21.8425 31.0682 21.653 31.2367 21.4423 31.2367H20.1364C19.9047 31.2367 19.7362 31.0471 19.7362 30.8365V28.7934C18.5145 28.5617 17.335 28.014 16.4714 27.2347C15.6289 26.4554 15.1234 25.4865 15.0181 24.4122C14.997 24.1805 15.1866 23.9699 15.4183 23.9699H16.7242C16.9348 23.9699 17.0822 24.1174 17.1244 24.328C17.2086 24.8335 17.4614 25.2758 17.9037 25.676C18.7252 26.4343 20.1153 26.8977 21.337 26.7924C22.5166 26.7081 23.8646 25.8656 23.991 24.7914C24.1595 23.5486 23.7172 22.7904 22.5166 22.2638C21.9268 21.99 21.2738 21.8215 20.5787 21.653C19.8415 21.4634 19.0622 21.2738 18.3039 20.9368C17.2718 20.4734 16.4504 19.6098 16.0502 18.5777C15.65 17.5456 15.7131 16.3872 16.1976 15.334C16.7874 14.0281 18.0722 13.1645 19.7362 12.8696V11.0582C19.7362 10.8265 19.9258 10.658 20.1364 10.658H21.4423C21.674 10.658 21.8425 10.8475 21.8425 11.0582V12.8485C23.1063 13.0592 24.2859 13.6489 25.1073 14.4915C25.7813 15.2076 26.0341 15.987 26.1605 16.8295C26.2026 17.0612 26.013 17.2929 25.7603 17.2929H24.4965C24.3069 17.2929 24.1384 17.1454 24.0963 16.9559C24.0542 16.5978 23.8857 16.2608 23.5908 15.9448C22.9589 15.2919 21.8425 14.8495 20.8315 14.8706C19.8205 14.8917 18.5777 15.2498 18.1354 16.1976C17.8826 16.7452 17.8616 17.3139 18.0512 17.8405C18.2407 18.346 18.662 18.7884 19.1886 19.0201C19.7783 19.2939 20.4313 19.4413 21.1264 19.6309C21.8847 19.8205 22.6429 20.01 23.4012 20.3681C25.4443 21.2738 26.3711 22.9168 26.0973 25.0863C25.8235 27.1294 23.7803 28.5617 21.8425 28.8566ZM26.1184 35.7864C25.7182 35.9127 25.318 35.6179 25.318 35.1966V34.2487C25.318 33.996 25.4865 33.7643 25.7182 33.68C30.9418 31.7212 34.5226 26.666 34.5226 21C34.5226 15.3551 30.9418 10.2788 25.7182 8.31996C25.4865 8.23571 25.318 8.00401 25.318 7.75125V6.82447C25.318 6.40321 25.7392 6.10833 26.1184 6.2347C32.3531 8.40421 36.6289 14.344 36.6289 21C36.6289 27.6981 32.3952 33.659 26.1184 35.7864Z" fill="#3E73C4"/>
</svg>

<svg xmlns="http://www.w3.org/2000/svg" width="42" height="42" fill="none"><circle cx="21" cy="21" r="18.667" fill="#F3F3F3"/><path fill="#3E73C4" d="M21 0C9.415 0 0 9.394 0 21s9.394 21 21 21 21-9.394 21-21S32.606 0 21 0Zm-4.634 35.07c0 .422-.421.716-.842.569C9.415 33.364 5.37 27.593 5.37 21S9.415 8.636 15.524 6.361c.4-.147.842.148.842.569v.948a.616.616 0 0 1-.4.568A13.47 13.47 0 0 0 7.477 21a13.47 13.47 0 0 0 8.489 12.554c.232.084.4.316.4.568v.948Zm5.477-6.213v1.98a.4.4 0 0 1-.4.4h-1.307a.4.4 0 0 1-.4-.4v-2.044c-1.221-.231-2.401-.779-3.265-1.558-.842-.78-1.348-1.748-1.453-2.823a.41.41 0 0 1 .4-.442h1.306c.21 0 .358.147.4.358.085.506.337.948.78 1.348.821.758 2.211 1.222 3.433 1.116 1.18-.084 2.528-.926 2.654-2 .169-1.243-.274-2.002-1.474-2.528-.59-.274-1.243-.442-1.938-.611-.738-.19-1.517-.38-2.275-.716a4.335 4.335 0 0 1-2.254-2.36c-.4-1.031-.337-2.19.148-3.243.59-1.306 1.874-2.17 3.538-2.464v-1.812a.4.4 0 0 1 .4-.4h1.306a.4.4 0 0 1 .4.4v1.79c1.264.211 2.444.8 3.265 1.643.674.717.927 1.496 1.053 2.338a.404.404 0 0 1-.4.464h-1.264a.425.425 0 0 1-.4-.337c-.042-.358-.21-.695-.505-1.011-.632-.653-1.748-1.095-2.76-1.074-1.01.02-2.253.379-2.696 1.327a2.129 2.129 0 0 0-.084 1.642c.19.506.611.948 1.138 1.18.59.274 1.242.421 1.937.61.759.19 1.517.38 2.275.738 2.043.906 2.97 2.549 2.696 4.718-.274 2.043-2.317 3.476-4.255 3.77Zm4.275 6.93a.613.613 0 0 1-.8-.59v-.948c0-.253.168-.485.4-.569 5.224-1.959 8.805-7.014 8.805-12.68 0-5.645-3.581-10.721-8.805-12.68a.616.616 0 0 1-.4-.569v-.927a.62.62 0 0 1 .8-.59c6.235 2.17 10.51 8.11 10.51 14.766 0 6.698-4.233 12.659-10.51 14.786Z"/></svg>
